X:1
Q:1/4=189
L:1/8
M:1/8
K:C clef=G2
V:1
%%MIDI program 0
F15/16|[F-^A-d-]|[F^Ad]7/8z/8|[F^Ad]15/16|
[F-^Ad]31/32|[F-Ac]15/16|[G^A]15/16|[^D-G-^A-]|
[^D-G-^A-]|z31/32|[^D-F-A-]|[^DFA]7/8z/8|
F15/16|[F-A-c-^d-]|[FAc^d]7/8z/8|[Fc^d]15/16|
[F-c^d]31/32|[F-^Ad]15/16|[AcF]15/16|[F-d-f-]|
[Fdf]31/32|[F^Ad]31/32|[D-F-^A-]|[DF^A]7/8z/8|
F15/16|[^A-d-F-]|[^AdF]7/8z/8|[^AdF]15/16|
[F-^Ad]31/32|[F-Ac]15/16|[G^AF]15/16|[^D-G-^A-]|
[^D-G-^A-]|z31/32|[^D-F-A-]|[^DFA]7/8z/8|
F15/16|[F-c^d]31/32|[F-^dg]15/16|[dfF]15/16|
[F-c^d]31/32|[F-^Ad]15/16|[Ac^DF]15/16|[^A-D-F-]|
[^ADF]7/8[^A-]/8|[^A-DF]15/16|[D-F-^A-]|[DF^A]3/4[DF]/8z/8|
F15/16
L:1/8
M:1/8
K:C clef=F4
V:2
%%MIDI program 0
z|[^A,,,-^A,,-]|[^A,,,^A,,]7/8z/8|[F,^A,D]15/16|
[F,-^A,-D-]|[F,^A,D]7/8z/8|[F,^A,D]15/16|[F,,,-F,,-]|
[F,,,F,,]7/8z/8|[F,C]15/16|[F,-C-]|[F,C]7/8z/8|
z|[F,,,-F,,-]|[F,,,F,,]7/8z/8|[F,A,^D]15/16|
[F,-A,-^D-]|[F,A,^D]7/8z/8|[F,A,^D]15/16|[^A,,,^A,,]15/16|
[D,,D,]15/16|[F,,F,]15/16|[^A,,-^A,-]|[^A,,^A,]7/8z/8|
z|[^A,,,^A,,]15/8|z|[F,^A,D]15/16|
[F,-^A,-D-]|[F,^A,D]7/8z/8|[F,^A,D]15/16|[F,,,-F,,-]|
[F,,,F,,]7/8z/8|[F,C]15/16|[F,-C-]|[F,C]7/8z/8|
z|[F,,,F,,]15/8|z|[F,A,^D]15/16|
[F,-A,-^D-]|[F,A,^D]7/8z/8|[F,,F,]15/16|[^A,,-F,-]|
[^A,,F,]7/8z/8|[^A,,F,]15/16|[^A,,-F,-]|[^A,,F,]7/8|
z31/32
Q:1/4=189
L:1/8
M:1/8
K:C clef=G2
V:1
%%MIDI program 0
[F-^A-d-]31/32|[F^Ad]7/8z/8|[F^Ad]15/16|[F-^Ad]31/32|
[F-Ac]15/16|[G^A]15/16|[^D-G-^A-]31/32|[^D-G-^A-]|
z31/32|[^D-F-A-]31/32|[^DFA]7/8z/8|F15/16|
[F-A-c-^d-]31/32|[FAc^d]7/8z/8|[Fc^d]15/16|[F-c^d]31/32|
[F-^Ad]15/16|[AcF]15/16|[F-d-f-]31/32|[Fdf]|
[F^Ad]31/32|[D-F-^A-]31/32|[DF^A]7/8z/8|F15/16|
[^A-d-F-]31/32|[^AdF]7/8z/8|[^AdF]15/16|[F-^Ad]31/32|
[F-Ac]15/16|[G^AF]15/16|[^D-G-^A-]31/32|[^D-G-^A-]|
z31/32|[^D-F-A-]31/32|[^DFA]7/8z/8|F15/16|
[F-c^d]31/32|[F-^dg]15/16|[dfF]15/16|[F-c^d]31/32|
[F-^Ad]15/16|[Ac^DF]15/16|[DF^A]15/16|[DF^A]15/16|
[Fc]15/16|[F^Ad]15/16|[^Ac^d]15/16|[^G^Adf]15/16|
[G-^A-^d-g-]31/32|[G^A^dg]3/8z3/4|[^dg]15/16|[^dg]31/32|
[df]15/16|[^ce]15/16|[d-f-]31/32|[df]7/8z/8|
[df]15/16|[df]31/32|[c^d]15/16|[^Ad]15/16|
[c-^d-]31/32|[c^d]7/8z/8|[c^d]15/16|[c^d]31/32|
[^Ad]15/16|[Ac]15/16|[F-^A-d-f-]31/32|[F-^A-d-f-]|
[F^Adf]|[F-^A-d-]31/32|[F^Ad]7/8z/8|[D^G^A]15/16|
[G-^A-^d-g-]31/32|[G^A^dg]3/8z3/4|[^dg]15/16|[^dg]31/32|
[df]15/16|[^ce]15/16|[d-f-]31/32|[df]7/8z/8|
[df]15/16|[df]31/32|[c^d]15/16|[^Ad]15/16|
[c^d]31/32|[^dg]15/16|[df]15/16|[c^d]31/32|
[^Ad]15/16|[Fc]15/16|[D^A]15/16|[DF^A]15/16|
[Fc]15/16|[F^Ad]15/16|[^Ac^d]15/16|[^G^Adf]15/16|
L:1/8
M:1/8
K:C clef=F4
V:2
%%MIDI program 0
[^A,,,-^A,,-]31/32|[^A,,,^A,,]7/8z/8|[F,^A,D]15/16|[F,-^A,-D-]31/32|
[F,^A,D]7/8z/8|[F,^A,D]15/16|[F,,,-F,,-]31/32|[F,,,F,,]7/8z/8|
[F,C]15/16|[F,-C-]31/32|[F,C]7/8z/8|z|
[F,,,-F,,-]31/32|[F,,,F,,]7/8z/8|[F,A,^D]15/16|[F,-A,-^D-]31/32|
[F,A,^D]7/8z/8|[F,A,^D]15/16|[^A,,,^A,,]15/16|[D,,D,]15/16|
[F,,F,]15/16|[^A,,-^A,-]31/32|[^A,,^A,]7/8z/8|z|
[^A,,,-^A,,-]31/32|[^A,,,^A,,]7/8z/8|[F,^A,D]15/16|[F,-^A,-D-]31/32|
[F,^A,D]7/8z/8|[F,^A,D]15/16|[F,,,-F,,-]31/32|[F,,,F,,]7/8z/8|
[F,C]15/16|[F,-C-]31/32|[F,C]7/8z/8|z|
[F,,,-F,,-]31/32|[F,,,F,,]7/8z/8|[F,A,^D]15/16|[F,-A,-^D-]31/32|
[F,A,^D]7/8z/8|[F,,F,]15/16|[^A,,F,]15/16|[^A,,^A,]15/16|
[A,,A,]15/16|[^G,,^G,]15/16|[G,,G,]15/16|[F,,F,]15/16|
[^D,,-^D,-]31/32|[^D,,^D,]3/8z3/4|z|[^D,-G,-^A,-]31/32|
[^D,G,^A,]7/8z/8|z|[^A,,-D,-F,-^A,-]31/32|[^A,,D,F,^A,]7/8z/8|
z|[^A,,-D,-F,-^A,-]31/32|[^A,,D,F,^A,]7/8z/8|z|
[F,,-A,,-C,-F,-]31/32|[F,,A,,C,F,]7/8z/8|[F,,A,,C,F,]15/16|[F,,-A,,-C,-F,-]31/32|
[F,,A,,C,F,]7/8z/8|z|[^A,,,^A,,]15/16|[^A,,^A,]15/16|
[A,,A,]15/16|[^G,,^G,]15/16|[G,,G,]15/16|[F,,F,]15/16|
[^D,,-^D,-]31/32|[^D,,^D,]3/8z3/4|z|[^D,-G,-^A,-]31/32|
[^D,G,^A,]7/8z/8|z|[^A,,-D,-F,-^A,-]31/32|[^A,,D,F,^A,]7/8z/8|
z|[^A,,-D,-F,-^A,-]31/32|[^A,,D,F,^A,]7/8z/8|z|
[F,,-A,,-C,-F,-]31/32|[F,,A,,C,F,]7/8z/8|z|[F,,-A,,-C,-F,-]31/32|
[F,,A,,C,F,]7/8z/8|z|[^A,,D,F,]15/16|[^A,,^A,]15/16|
[A,,A,]15/16|[^G,,^G,]15/16|[G,,G,]15/16|[F,,F,]15/16|
Q:1/4=189
L:1/8
M:1/8
K:C clef=G2
V:1
%%MIDI program 0
[G-^A-^d-g-]31/32|[G^A^dg]3/8z3/4|[^dg]15/16|[^dg]31/32|
[df]15/16|[^ce]15/16|[d-f-]31/32|[df]7/8z/8|
[df]15/16|[df]31/32|[c^d]15/16|[^Ad]15/16|
[c-^d-]31/32|[c^d]7/8z/8|[c^d]15/16|[c^d]31/32|
[^Ad]15/16|[Ac]15/16|[F-^A-d-f-]31/32|[F-^A-d-f-]|
[F^Adf]|[F-^A-d-]31/32|[F^Ad]7/8z/8|[D^G^A]15/16|
[G-^A-^d-g-]31/32|[G^A^dg]3/8z3/4|[^dg]15/16|[^dg]31/32|
[df]15/16|[^ce]15/16|[d-f-]31/32|[df]7/8z/8|
[df]15/16|[df]31/32|[c^d]15/16|[^Ad]15/16|
[c^d]31/32|[^dg]15/16|[df]15/16|[c^d]31/32|
[^Ad]15/16|[Fc]15/16|[D-^A-]31/32|[D-^A-]|
[D-^A-]|[D-^A-]|[D^A]3/4z/4|[F^Ad]15/16|
[F-c-]31/32|[Fc]7/8z/8|[F^Ad]15/16|[G-^A-^d-]31/32|
[G^A^d]7/8z/8|[^G^Adf]15/16|[G-^A-^d-g-]31/32|[G-^A-^d-g-]|
[G^A^dg]|[G-^A-^d-]31/32|[G^A^d]7/8z/8|[G^Ag]15/16|
[F-A-c-f-]31/32|[FAcf]7/8z/8|[FAc^d]15/16|[F-A-d-]31/32|
[FAd]7/8z/8|[FAc]15/16|[f-F-^A-]31/32|[fF^A]|
[fF^A]31/32|[d-F-^A-]31/32|[dF^A]7/8z/8|[F^Ad]15/16|
[F-c-]31/32|[Fc]7/8z/8|[F^Ad]15/16|[G-^A-^d-]31/32|
[G^A^d]7/8z/8|[^G^Adf]15/16|[G-^A-^d-g-]31/32|[G-^A-^d-g-]|
z31/32|[G-^A-^d-]31/32|[G^A^d]7/8z/8|[G^Ag]15/16|
[Af]31/32|[^Ag]15/16|[Af]15/16|[A-G^d]31/32|
[A-Fd]15/16|[A-^Dc]15/16|[^A-D-F-]31/32|[^ADF]7/8[^A-]/8|
[^A-DF]15/16|[D-F-^A-]31/32|[DF^A]3/4(5:3[DF]/4|[F^Ad]15/16|
L:1/8
M:1/8
K:C clef=F4
V:2
%%MIDI program 0
[^D,,-^D,-]31/32|[^D,,^D,]3/8z3/4|z|[^D,-G,-^A,-]31/32|
[^D,G,^A,]7/8z/8|z|[^A,,-D,-F,-^A,-]31/32|[^A,,D,F,^A,]7/8z/8|
z|[^A,,-D,-F,-^A,-]31/32|[^A,,D,F,^A,]7/8z/8|z|
[F,,-A,,-C,-F,-]31/32|[F,,A,,C,F,]7/8z/8|[F,,A,,C,F,]15/16|[F,,-A,,-C,-F,-]31/32|
[F,,A,,C,F,]7/8z/8|z|[^A,,,^A,,]15/16|[^A,,^A,]15/16|
[A,,A,]15/16|[^G,,^G,]15/16|[G,,G,]15/16|[F,,F,]15/16|
[^D,,-^D,-]31/32|[^D,,^D,]3/8z3/4|z|[^D,-G,-^A,-]31/32|
[^D,G,^A,]7/8z/8|z|[^A,,-D,-F,-^A,-]31/32|[^A,,D,F,^A,]7/8z/8|
z|[^A,,-D,-F,-^A,-]31/32|[^A,,D,F,^A,]7/8z/8|z|
[F,,-A,,-C,-F,-]31/32|[F,,A,,C,F,]7/8z/8|z|[F,,-A,,-C,-F,-]31/32|
[F,,A,,C,F,]7/8z/8|z|[^A,,-D,-F,-]31/32|[^A,,D,F,]7/8z/8|
[^A,,D,F,]15/16|[^A,,-D,-F,-]31/32|[^A,,D,F,]7/8z/8|[^A,,^A,]15/16|
[A,,-A,-]31/32|[A,,A,]7/8z/8|[^G,,^G,]15/16|[G,,-G,-]31/32|
[G,,G,]7/8z/8|[F,,F,]15/16|[^D,,-^D,-]31/32|[^D,,^D,]7/8z/8|
[^D,G,^A,]15/16|[^D,-G,-^A,-]31/32|[^D,-G,-^A,-]|[^D,G,^A,]7/8z/8|
[F,,-F,-]31/32|[F,,-F,-]|[F,,F,]7/8z/8|[^D,,-^D,-]31/32|
[^D,,-^D,-]|[^D,,^D,]7/8z/8|[D,,-D,-]31/32|[D,,D,]7/8z/8|
[D,F,^A,]15/16|[^A,,-D,-F,-^A,-]31/32|[^A,,D,F,^A,]7/8z/8|[^A,,^A,]15/16|
[A,,-A,-]31/32|[A,,A,]7/8z/8|[^G,,^G,]15/16|[G,,-G,-]31/32|
[G,,G,]7/8z/8|[F,,F,]15/16|[^D,,-^D,-]31/32|[^D,,^D,]7/8z/8|
[^D,G,^A,]15/16|[^D,-G,-^A,-]31/32|[^D,-G,-^A,-]|[^D,G,^A,]7/8z/8|
[F,,-A,,-C,-F,-]31/32|[F,,-A,,-C,-F,-]|[F,,A,,C,F,]7/8z/8|[F,-A,-]31/32|
[F,-A,-]|[F,A,]7/8z/8|[^A,,-F,-^A,-]31/32|[^A,,F,^A,]7/8z/8|
[^A,,F,^A,]15/16|[^A,,-F,-^A,-]31/32|[^A,,F,^A,]7/8z/8|[^A,,^A,]15/16|
Q:1/4=189
L:1/8
M:1/8
K:C clef=G2
V:1
%%MIDI program 0
[F-c-]31/32|[Fc]7/8z/8|[F^Ad]15/16|[G-^A-^d-]31/32|
[G^A^d]7/8z/8|[^G^Adf]15/16|[G-^A-^d-g-]31/32|[G-^A-^d-g-]|
[G^A^dg]|[G-^A-^d-]31/32|[G^A^d]7/8z/8|[G^Ag]15/16|
[F-A-c-f-]31/32|[FAcf]7/8z/8|[FAc^d]15/16|[F-A-d-]31/32|
[FAd]7/8z/8|[FAc]15/16|[f-F-^A-]31/32|[fF^A]|
[fF^A]31/32|[d-F-^A-]31/32|[dF^A]7/8z/8|[F^Ad]15/16|
[F-c-]31/32|[Fc]7/8z/8|[F^Ad]15/16|[G-^A-^d-]31/32|
[G^A^d]7/8z/8|[^G^Adf]15/16|[G-^A-^d-g-]31/32|[G-^A-^d-g-]|
z31/32|[G-^A-^d-]31/32|[G^A^d]7/8z/8|[G^Ag]15/16|
[Af]31/32|[^Ag]15/16|[Af]15/16|[A-G^d]31/32|
[A-Fd]15/16|[A-^Dc]15/16|[^A-D-F-]31/32|[^ADF]7/8[^A-]/8|
[^A-DF]15/16|[D-F-^A-]31/32|[DF^A]3/4(5:3[DF]/4
L:1/8
M:1/8
K:C clef=F4
V:2
%%MIDI program 0
[A,,-A,-]31/32|[A,,A,]7/8z/8|[^G,,^G,]15/16|[G,,-G,-]31/32|
[G,,G,]7/8z/8|[F,,F,]15/16|[^D,,-^D,-]31/32|[^D,,^D,]7/8z/8|
[^D,G,^A,]15/16|[^D,-G,-^A,-]31/32|[^D,-G,-^A,-]|[^D,G,^A,]7/8z/8|
[F,,-F,-]31/32|[F,,-F,-]|[F,,F,]7/8z/8|[^D,,-^D,-]31/32|
[^D,,-^D,-]|[^D,,^D,]7/8z/8|[D,,-D,-]31/32|[D,,D,]7/8z/8|
[D,F,^A,]15/16|[^A,,-D,-F,-^A,-]31/32|[^A,,D,F,^A,]7/8z/8|[^A,,^A,]15/16|
[A,,-A,-]31/32|[A,,A,]7/8z/8|[^G,,^G,]15/16|[G,,-G,-]31/32|
[G,,G,]7/8z/8|[F,,F,]15/16|[^D,,-^D,-]31/32|[^D,,^D,]7/8z/8|
[^D,G,^A,]15/16|[^D,-G,-^A,-]31/32|[^D,-G,-^A,-]|[^D,G,^A,]7/8z/8|
[F,,-A,,-C,-F,-]31/32|[F,,-A,,-C,-F,-]|[F,,A,,C,F,]7/8z/8|[F,-A,-]31/32|
[F,-A,-]|[F,A,]7/8z/8|[^A,,-F,-^A,-]31/32|[^A,,F,^A,]7/8z/8|
[^A,,,^A,,]15/16|[^A,,,-^A,,-]31/32|[^A,,,^A,,]7/8


